X:166
T:GB/6a/166 Tarry Trowsers
%%VWML:GB-6a-166-0
F:http://www.vwml.org/record/GB/6a/166
C:Transcribed by Simon Furey and Lewis Jones
L:1/4
M:4/4
I:linebreak $
K:Edor
E E B B | G E F D | E E/F/ G G | A A B2 | B B/c/ d e |"^(a)" A/A/A/A/ c d | G E d B | A B E2 |]$ "^(a) var." A A c d |

